icons/op-forums-24.svg

<svg xmlns="http://www.w3.org/2000/svg" width="24" height="24" viewBox="0 0 24 24"><path d="M18 9h-1v1c0 1.531-1.469 3-3 3H9.406L8 14.406V15c0 1 1 2 2 2h5l3 3v-3c1 0 2-1 2-2v-4c0-1-1-2-2-2Zm-4-5H6C5 4 4 5 4 6v4c0 1 1 2 2 2-.469 0 .188 0 0 0v3l3-3h5c1 0 2-1 2-2V6c0-1-1-2-2-2Z"/></svg>

<svg width="24" height="24" viewBox="0 0 24 24" fill="none" xmlns="http://www.w3.org/2000/svg">
<path d="M18 9H17V10C17 11.5312 15.5312 13 14 13H9.40625L8 14.4062V15C8 16 9 17 10 17H15L18 20V17C19 17 20 16 20 15V11C20 10 19 9 18 9ZM14 4H6C5 4 4 5 4 6V10C4 11 5 12 6 12C5.53125 12 6.1875 12 6 12V15L9 12H14C15 12 16 11 16 10V6C16 5 15 4 14 4Z" fill="black"/>
</svg>
